!!!SOCIAL_FUNCTION:	songs of the drum-presentation ceremony
!!!PDT:	1913
!!!OTL: No_70_Song_of_the_Drum.krn
!!!REG: Great_Lakes
!!!LANG: Non-Tone
!!!LING_GROUP: Algonquin
**kern	**kern
*staff2	*staff1
*clefF4	*clefF4
*k[b-e-a-d-g-]	*k[b-e-a-d-g-]
*M3/4	*M3/4
16r	16d-\
=1	=1
8GG-/L	8.e-\L
8GG-/J	.
.	16e-\Jk
8GG-/L	4e-\
8GG-/J	.
8GG-/L	8.d-\L
8GG-/J	.
.	16d-\Jk
=2||	=2||
*M2/4	*M2/4
2r	2d-\
=3	=3
2r	16B-\LK
.	[8.B-\J
.	8.B-;\L]
.	16d-\Jk
=4||	=4||
*M3/4	*M3/4
2.r	8.e-\L
.	16e-\Jk
.	4e-\
.	8.d-\L
.	16d-\Jk
=5||	=5||
*M2/4	*M2/4
2r	2d-\
=6	=6
2r	16B-\LK
.	8.B-\J
.	8.B-\L
.	16d-\Jk
=7	=7
2r	8.d-\L
.	16d-\Jk
.	4d-\
=8	=8
2r	16d-\LK
.	8.B-\J
.	16A-\LK
.	8.A-\J
=9	=9
2r	16A-\LK
.	8.A-\J
.	8A-\L
.	8F\J
=10	=10
2r	16E-\LK
.	8.E-\J
.	16E-\LK
.	8.E-\J
=11	=11
2r	8.D-\L
.	16D-\Jk
.	4D-\
=12	=12
2r	16BB-/LK
.	8.BB-/J
.	8.BB-/L
.	16E-/Jk
=13	=13
2r	8.E-\L
.	16E-\Jk
.	4E-\
=14	=14
2r	8.D-\L
.	16D-\Jk
.	[4D-\
=15	=15
2r	2D-\]
==	==
*-	*-
